X: 9092
T: Da Scallowa Lasses
R: reel
M: 4/4
K: Adorian
|:eaag egdB|c2 ec gcec|eaag eged|1 cABG A2 A2:|2 cABG A2 Ac||
|:BE ~E2 c2 ce|dcde gfed|eaag eged|1 cABG A2 Ac:|2 cABG A2 A2||

